!!!OTL: Es wollt ein Maedchen waschen gan
!!!ARE: Europa, Mitteleuropa, Deutschland
!!!SCT: L0072
!!!YEM: Copyright 1995, estate of Helmut Schaffrath.
**kern
*ICvox
*Ivox
*M2/2
*k[b-e-]
*g:
{4g
=1
2g
2g
=2
2.dd
4cc
=3
2dd
2b-
=4
2a
4r}
{4b-
=5
2cc
2cc
=6
2.dd
4cc
=7
2b-
2a
=8
2g
4r}
{4dd
=9
2cc
2a
=10
2b-
2g
=11
1a
=12
2d
4r}
{4a
=13
2b-
2a
=14
2g
2dd
=15
2cc
2b-
=16
8a
8g
8a
8b-
4cc}
{4dd
=17
4b-
4g
2a
=18
2g
2cc
=19
4a
4a
4b-
4cc
=20
8dd
8ee
8ffn
8ee
4dd
[4cc
=21
8cc]
8b-
8a
8g
4b-
4a
=22
2.g}
==
!!!AGN: Lied
!! Aus: 68 Lieder. 1550 No. 30
!!!ONB: ESAC (Essen Associative Code) Database: ERK5
!!!AMT: simple duple
!!!AIN: vox
!!!EED: Helmut Schaffrath
!!!EEV: 1.0
*-
